X: 18505
T: I Buried My Wife And Danced On Her Grave
R: jig
M: 6/8
K: Dmixolydian
|:DED F2G|AdB cAF|~G3 cAG|~F3 GEA|
DED F2G|AdB cAF|GFGcAG|1 AFD D2E:|2 AFD D3||
|:d2e fed|faf ge^c|d2e fed|d^cA d^cA|
d2e fed|faf ge^c|d^cA BAG|1 AFD D2A:|2 AFD D2E||

